X:9
T:Red Wing
C:Traditional
M:2/4
L:1/8
Q:1/8=280
K:G
D|:GG/G/ GB|d2 dG|ce g/f/e|d3B|
c3/2B/ Ac|B3/2A/ GB|1 AE FG|A/B/A/F/ ED:|2 AE FD|G2 gf|
|:e2 e3/2e/|eg fe|d2 B2|Bd ed|
d2 A2| Ad ed|1 d2 B2|B2 gf:|2 Ac BA|G4|
